svgs/regular/images.svg

<svg xmlns="http://www.w3.org/2000/svg" viewBox="0 0 576 512"><!-- Font Awesome Pro 6.0.0-alpha2 by @fontawesome - https://fontawesome.com License - https://fontawesome.com/license (Commercial License) --><path d="M512 32H160.004C124.656 32 96.004 60.652 96.004 96V320C96.004 355.346 124.656 384 160.004 384H512C547.348 384 576 355.346 576 320V96C576 60.652 547.348 32 512 32ZM528 320C528 328.822 520.822 336 512 336H496L386.654 175.125C383.686 170.672 378.689 168 373.342 168C367.99 168 362.994 170.672 360.029 175.125L297.285 269.234L274.934 238.574C271.918 234.441 267.113 232 262.002 232C256.893 232 252.088 234.441 249.072 238.574L176 336H160.004C151.182 336 144.004 328.822 144.004 320V96C144.004 87.178 151.182 80 160.004 80H512C520.822 80 528 87.178 528 96V320ZM48.002 400V96C21.49 96 0 117.492 0 144V416C0 451.344 28.654 480 64.002 480H432.012C458.521 480 480.014 458.508 480.014 432H80.002C62.328 432 48.002 417.672 48.002 400ZM224 112C206.328 112 192 126.328 192 144S206.328 176 224 176C241.678 176 256.002 161.672 256.002 144S241.678 112 224 112Z"/></svg>

<svg xmlns="http://www.w3.org/2000/svg" viewBox="0 0 576 512"><!--! Font Awesome Pro 6.0.0-alpha3 by @fontawesome - https://fontawesome.com License - https://fontawesome.com/license (Commercial License) --><path d="M512 32H160c-35.35 0-64 28.65-64 64v224c0 35.35 28.65 64 64 64H512c35.35 0 64-28.65 64-64V96C576 60.65 547.3 32 512 32zM528 320c0 8.822-7.178 16-16 16h-16l-109.3-160.9C383.7 170.7 378.7 168 373.3 168c-5.352 0-10.35 2.672-13.31 7.125l-62.74 94.11L274.9 238.6C271.9 234.4 267.1 232 262 232c-5.109 0-9.914 2.441-12.93 6.574L176 336H160c-8.822 0-16-7.178-16-16V96c0-8.822 7.178-16 16-16H512c8.822 0 16 7.178 16 16V320zM224 112c-17.67 0-32 14.33-32 32s14.33 32 32 32c17.68 0 32-14.33 32-32S241.7 112 224 112zM456 480H120C53.83 480 0 426.2 0 360v-240C0 106.8 10.75 96 24 96S48 106.8 48 120v240c0 39.7 32.3 72 72 72h336c13.25 0 24 10.75 24 24S469.3 480 456 480z"/></svg>
